X: 37194
T: Sir Thomas Fairfax's March
R: jig
M: 6/8
K: Dmajor
|:d3 B>cd|e3 A>Bc|d2F E2D|D3 z2d|
d>cd B>cd|e>de A2B|A2F E2D|D3 z2F|
G2A BAG|F2G A2F|G2A B>cd|e3 z2a|
f>ef B>cd|e>de A>Bc|d2F E2D|D3 z2F|
G2A BAG|F2G A2F|G>FG/A/ B>cd/B/|e3 z2a|
f>ef B>cd|e>de A2B|A2F E2D|D3 z3:|

